!!!OTL: Der Donaustrudel.
!!!OTL-incipit: EI DU MEIN LIEBER SCHIFFSMANN MEIN
!!!COM: Volksweise
!!!ARE: Europa, Mitteleuropa, Deutschland
!!!SCT: F0867
!!!TXL: @@DE
!!!YEM: Copyright 1995, estate of Helmut Schaffrath.
**kern	**text
*ICvox	*
*clefG2	*
*M2/4	*
*k[f#c#g#d#]	*
*E:	*
=1	=1
!LO:TX:a:t=Munter, nicht ʒu ſchell.	!
{4b/	1._Ei,
8a	du
8a	mein
=2	=2
8g#L	lie-
8bJ	.
8ee/L	-ber
8g#J	.
=3	=3
4b/	Schiffs-
[>8a	-mann
8a]	.
=4	=4
(>4g#	mein,
4e)}	.
=5	=5
{4b/	Ob's
8a	noch
8a	weit
=6	=6
8g#L	bis
8bJ	.
8ee/L	ʒum
8g#J	.
=7	=7
4b/	Stru-
[>8a	-del
8a]	mag
=8	=8
(>4g#	ſein?
4e)}	.
=9	=9
{4e	A-
8g#	-ber
8b/	ge-
=10	=10
4e	-ſteh'
8g#	mir
8b/	auch
=11	=11
2cc#	ehr-
=12	=12
2b}	-lich,
=13	=13
{4a	ob's
4a	nit
=14	=14
4g#	iſt
4g#	ge-
=15	=15
2b	-fähr-
=16	=16
2g#}	-lich
=17	=17
!LO:TX:a:t=das ʒweite Mal Alle.	!
{4e	Schwäbi-
8g#	.
8b/	-ſche,
=18	=18
4e	bai-
8g#	-ri-
8b/	-ſche
=19	=19
4a	Dirndel,
8cc#	.
8ee	juch-
=20	=20
4g#}	-he!
{8b/L	die
8eeJ	.
=21	=21
4f#	muß
8a/L	der
8cc#J	.
=22	=22
4e	Schiffsmann
8g#L	.
8bJ	.
=23	=23
(4b	fah-
4gg#)	.
=24	=24
2ee}	-ren!
=25	=25
{4e	Schiwäbi-
8g#	.
8b/	-ſche,
=26	=26
4e	bai-
8g#	-ri-
8b/	-ſche
=27	=27
4a	Dirndel,
8cc#	.
8ee	juch-
=28	=28
4g#}	-he!
{8b/L	die
8eeJ	.
=29	=29
4f#	muß
8a/L	der
8cc#J	.
=30	=30
4e	Schiffsmann
8g#	.
8b/	.
=31	=31
(4b	fah-
4gg#)	.
=32	=32
2ee}	-ren!
==	==
!!!AGN: erzaehlendes Volks - Lied
!!!ONB: ESAC (Essen Associative Code) Database: FINK
!!!AMT: simple duple
!!!AIN: vox
!!!EED: Helmut Schaffrath
!!!EEV: 1.0
!!!RDF**kern: > = above
!!!GTL: Romanzen und Balladen
!!Text: Volkslied
!!!source: Musikalischer Hausschatz der Deutschen. Eine Sammlung von über 1000 Liedern und Gesängen mit Singstimmen und Klavierbegleitung. Leipzig, Litterarisches Verlags-Haus.
!!!page: 621
!!!URL-scan: https://www.digitale-sammlungen.de/en/view/bsb11144622?page=572
!!!ENC: Anna Maria Matuszewska
!!!EEV: 2024/08/07
*-	*-